X:3062
T:John Doherty's Father's Tune
O:england
R:Reel
S:Andy Dickson, Belfast (fiddle)
D:Private tape
H:The last tune that John Doherty's father played.
H:Unusual in having 2 extra bars in the second part.
N:As played
M:4/4
K:G
DEGA ~B2DB | Adfd cAFA | {A}GFGA ~B2BG |1 AdcA {B}AGGE :|2 AdcA AGG2 ||
gbag fdde | fdge {a}fdef | fedg fdcA | dgga fgfa | bgag {a}fede | =fafd cA^FA |
{A}GFGA ~B2{d}BG | Adfd cAFA |{A}GFGA ~B2{d}B2 | AdcA {B}AGGF || G4


